img/logo.svg

<?xml version="1.0" encoding="UTF-8"?>
<svg xmlns="http://www.w3.org/2000/svg" xmlns:xlink="http://www.w3.org/1999/xlink" width="187px" height="71px" viewBox="0 0 185 71" version="1.1">
<g id="surface1">
<path style=" stroke:none;fill-rule:nonzero;fill:rgb(0%,0%,0%);fill-opacity:1;" d="M 10.296875 28.179688 C 4.324219 28.179688 0 24.050781 0 17.429688 C 0 10.8125 4.230469 6.675781 10.296875 6.675781 C 16.242188 6.675781 20.429688 10.722656 20.429688 17.09375 C 20.429688 17.71875 20.394531 18.34375 20.320312 18.964844 L 6.179688 18.964844 C 6.390625 21.71875 8.03125 22.96875 10.035156 22.96875 C 11.4375 23.054688 12.738281 22.246094 13.285156 20.949219 L 19.90625 20.949219 C 18.953125 25.035156 15.34375 28.179688 10.296875 28.179688 Z M 6.234375 15.410156 L 14.03125 15.410156 C 14.03125 13.125 12.28125 11.808594 10.207031 11.808594 C 8.136719 11.808594 6.597656 13.082031 6.234375 15.410156 Z M 6.234375 15.410156 "/>
<path style=" stroke:none;fill-rule:nonzero;fill:rgb(0%,0%,0%);fill-opacity:1;" d="M 31.960938 28.179688 C 26.53125 28.179688 22.886719 25.070312 22.597656 21.023438 L 28.777344 21.023438 C 28.921875 22.488281 30.199219 23.457031 31.914062 23.457031 C 33.515625 23.457031 34.351562 22.707031 34.351562 21.773438 C 34.351562 18.402344 23.273438 20.835938 23.273438 13.160156 C 23.273438 9.601562 26.222656 6.675781 31.542969 6.675781 C 36.863281 6.675781 39.714844 9.675781 40.109375 13.796875 L 34.324219 13.796875 C 34.144531 12.375 33.089844 11.4375 31.339844 11.4375 C 29.882812 11.4375 29.078125 12.035156 29.078125 13.046875 C 29.078125 16.378906 40.0625 14.019531 40.195312 21.8125 C 40.199219 25.449219 37.070312 28.179688 31.960938 28.179688 Z M 31.960938 28.179688 "/>
<path style=" stroke:none;fill-rule:nonzero;fill:rgb(0%,0%,0%);fill-opacity:1;" d="M 45.011719 12.296875 L 42.5625 12.296875 L 42.5625 6.980469 L 45.039062 6.980469 L 45.039062 1.882812 L 51.273438 1.882812 L 51.273438 6.980469 L 55.351562 6.980469 L 55.351562 12.296875 L 51.246094 12.296875 L 51.246094 20.6875 C 51.246094 21.925781 51.753906 22.449219 53.140625 22.449219 L 55.363281 22.449219 L 55.363281 27.875 L 52.171875 27.875 C 47.945312 27.875 44.992188 26.046875 44.992188 20.609375 Z M 45.011719 12.296875 "/>
<path style=" stroke:none;fill-rule:nonzero;fill:rgb(0%,0%,0%);fill-opacity:1;" d="M 67.859375 28.179688 C 61.886719 28.179688 57.5625 24.050781 57.5625 17.429688 C 57.5625 10.8125 61.785156 6.675781 67.859375 6.675781 C 73.933594 6.675781 77.992188 10.722656 77.992188 17.09375 C 77.988281 17.71875 77.957031 18.34375 77.886719 18.964844 L 63.78125 18.964844 C 64 21.71875 65.640625 22.96875 67.644531 22.96875 C 69.042969 23.054688 70.34375 22.242188 70.886719 20.949219 L 77.515625 20.949219 C 76.535156 25.035156 72.933594 28.179688 67.859375 28.179688 Z M 63.84375 15.410156 L 71.640625 15.410156 C 71.640625 13.125 69.890625 11.808594 67.816406 11.808594 C 65.746094 11.808594 64.179688 13.082031 63.84375 15.410156 Z M 63.84375 15.410156 "/>
<path style=" stroke:none;fill-rule:nonzero;fill:rgb(0%,0%,0%);fill-opacity:1;" d="M 90.3125 28.179688 C 84.335938 28.179688 80.015625 24.050781 80.015625 17.429688 C 80.015625 10.8125 84.246094 6.675781 90.3125 6.675781 C 96.25 6.675781 100.445312 10.722656 100.445312 17.09375 C 100.445312 17.71875 100.410156 18.34375 100.335938 18.964844 L 86.230469 18.964844 C 86.449219 21.71875 88.089844 22.96875 90.09375 22.96875 C 91.503906 23.066406 92.816406 22.253906 93.363281 20.949219 L 100 20.949219 C 98.992188 25.035156 95.378906 28.179688 90.3125 28.179688 Z M 86.261719 15.410156 L 94.046875 15.410156 C 94.046875 13.125 92.296875 11.808594 90.21875 11.808594 C 88.136719 11.808594 86.632812 13.082031 86.261719 15.410156 Z M 86.261719 15.410156 "/>
<path style=" stroke:none;fill-rule:nonzero;fill:rgb(0%,0%,0%);fill-opacity:1;" d="M 131.75 16.53125 C 131.75 13.777344 130.21875 12.296875 127.851562 12.296875 C 125.480469 12.296875 123.949219 13.796875 123.949219 16.53125 L 123.949219 27.875 L 117.773438 27.875 L 117.773438 16.53125 C 117.773438 13.777344 116.242188 12.296875 113.867188 12.296875 C 111.492188 12.296875 109.96875 13.796875 109.96875 16.53125 L 109.96875 27.875 L 103.734375 27.875 L 103.734375 6.980469 L 109.96875 6.980469 L 109.96875 9.601562 C 111.367188 7.734375 113.585938 6.671875 115.914062 6.753906 C 118.769531 6.628906 121.453125 8.136719 122.839844 10.648438 C 124.304688 8.25 126.898438 6.777344 129.703125 6.753906 C 134.730469 6.753906 137.941406 10.046875 137.941406 15.699219 L 137.941406 27.875 L 131.761719 27.875 Z M 131.75 16.53125 "/>
<path style=" stroke:none;fill-rule:nonzero;fill:rgb(0%,0%,0%);fill-opacity:1;" d="M 151.355469 28.179688 C 145.382812 28.179688 141.058594 24.050781 141.058594 17.429688 C 141.058594 10.8125 145.285156 6.675781 151.355469 6.675781 C 157.300781 6.675781 161.488281 10.722656 161.488281 17.09375 C 161.488281 17.71875 161.449219 18.34375 161.378906 18.964844 L 147.277344 18.964844 C 147.492188 21.71875 149.132812 22.96875 151.136719 22.96875 C 152.539062 23.054688 153.839844 22.246094 154.382812 20.949219 L 161.015625 20.949219 C 160.03125 25.035156 156.421875 28.179688 151.355469 28.179688 Z M 147.3125 15.410156 L 155.144531 15.410156 C 155.144531 13.125 153.394531 11.808594 151.320312 11.808594 C 149.246094 11.808594 147.675781 13.082031 147.3125 15.410156 Z M 147.3125 15.410156 "/>
<path style=" stroke:none;fill-rule:nonzero;fill:rgb(0%,0%,0%);fill-opacity:1;" d="M 172.5 6.675781 C 174.988281 6.617188 177.34375 7.8125 178.765625 9.863281 L 178.765625 0.160156 L 185 0.160156 L 185 27.875 L 178.765625 27.875 L 178.765625 24.882812 C 177.429688 27.039062 175.03125 28.300781 172.5 28.179688 C 167.5 28.179688 163.527344 23.980469 163.527344 17.390625 C 163.527344 10.796875 167.5 6.675781 172.5 6.675781 Z M 174.316406 12.257812 C 171.984375 12.257812 169.871094 14.058594 169.871094 17.390625 C 169.871094 20.71875 171.984375 22.597656 174.316406 22.597656 C 176.652344 22.597656 178.765625 20.761719 178.765625 17.429688 C 178.765625 14.101562 176.6875 12.257812 174.316406 12.257812 Z M 174.316406 12.257812 "/>
<path style=" stroke:none;fill-rule:nonzero;fill:rgb(0%,0%,0%);fill-opacity:1;" d="M 88.445312 40.390625 C 91.707031 40.332031 94.71875 42.144531 96.195312 45.058594 L 96.195312 33.496094 L 98.722656 33.496094 L 98.722656 60.910156 L 96.195312 60.910156 L 96.195312 56.390625 C 94.820312 59.433594 91.742188 61.339844 88.410156 61.207031 C 83.007812 61.207031 79.007812 57.078125 79.007812 50.761719 C 79.007812 44.445312 83.007812 40.390625 88.445312 40.390625 Z M 88.878906 42.648438 C 84.761719 42.648438 81.5625 45.613281 81.5625 50.761719 C 81.5625 55.90625 84.738281 58.949219 88.878906 58.949219 C 92.914062 58.949219 96.195312 55.839844 96.195312 50.800781 C 96.195312 45.765625 92.914062 42.648438 88.878906 42.648438 Z M 88.878906 42.648438 "/>
<path style=" stroke:none;fill-rule:nonzero;fill:rgb(0%,0%,0%);fill-opacity:1;" d="M 103.90625 34.941406 C 103.90625 33.925781 104.730469 33.097656 105.746094 33.097656 C 106.761719 33.097656 107.585938 33.925781 107.585938 34.941406 C 107.585938 35.960938 106.761719 36.785156 105.746094 36.785156 C 104.730469 36.785156 103.90625 35.960938 103.90625 34.941406 Z M 104.484375 40.6875 L 107.007812 40.6875 L 107.007812 60.910156 L 104.484375 60.910156 Z M 104.484375 40.6875 "/>
<path style=" stroke:none;fill-rule:nonzero;fill:rgb(0%,0%,0%);fill-opacity:1;" d="M 120.992188 40.390625 C 124.886719 40.390625 127.65625 42.539062 128.777344 45.097656 L 128.777344 40.6875 L 131.304688 40.6875 L 131.304688 61.433594 C 131.304688 67.097656 127.515625 70.839844 122.113281 70.839844 C 117.023438 70.839844 113.496094 68.167969 112.699219 63.957031 L 115.191406 63.957031 C 116.015625 66.710938 118.507812 68.589844 122.113281 68.589844 C 125.859375 68.589844 128.777344 66.03125 128.777344 61.441406 L 128.777344 56.429688 C 127.371094 59.441406 124.308594 61.324219 120.992188 61.207031 C 115.582031 61.207031 111.585938 57.078125 111.585938 50.761719 C 111.585938 44.445312 115.582031 40.390625 120.992188 40.390625 Z M 121.460938 42.648438 C 117.339844 42.648438 114.140625 45.613281 114.140625 50.761719 C 114.140625 55.90625 117.3125 58.949219 121.460938 58.949219 C 125.496094 58.949219 128.777344 55.839844 128.777344 50.800781 C 128.777344 45.765625 125.496094 42.648438 121.460938 42.648438 Z M 121.460938 42.648438 "/>
<path style=" stroke:none;fill-rule:nonzero;fill:rgb(0%,0%,0%);fill-opacity:1;" d="M 136.484375 34.941406 C 136.484375 33.925781 137.308594 33.097656 138.324219 33.097656 C 139.34375 33.097656 140.164062 33.925781 140.164062 34.941406 C 140.164062 35.960938 139.34375 36.785156 138.324219 36.785156 C 137.308594 36.785156 136.484375 35.960938 136.484375 34.941406 Z M 137.0625 40.6875 L 139.589844 40.6875 L 139.589844 60.910156 L 137.0625 60.910156 Z M 137.0625 40.6875 "/>
<path style=" stroke:none;fill-rule:nonzero;fill:rgb(0%,0%,0%);fill-opacity:1;" d="M 146.042969 42.871094 L 143.296875 42.871094 L 143.296875 40.6875 L 146.042969 40.6875 L 146.042969 35.609375 L 148.597656 35.609375 L 148.597656 40.6875 L 154.003906 40.6875 L 154.003906 42.871094 L 148.597656 42.871094 L 148.597656 55.425781 C 148.597656 57.910156 149.425781 58.6875 151.699219 58.6875 L 154.003906 58.6875 L 154.003906 60.910156 L 151.300781 60.910156 C 147.867188 60.910156 146.042969 59.464844 146.042969 55.40625 Z M 146.042969 42.871094 "/>
<path style=" stroke:none;fill-rule:nonzero;fill:rgb(0%,0%,0%);fill-opacity:1;" d="M 166.402344 40.390625 C 170.363281 40.390625 173.070312 42.574219 174.1875 45.132812 L 174.1875 40.6875 L 176.707031 40.6875 L 176.707031 60.910156 L 174.1875 60.910156 L 174.1875 56.429688 C 172.773438 59.453125 169.691406 61.335938 166.363281 61.207031 C 160.992188 61.207031 156.992188 57.078125 156.992188 50.761719 C 156.992188 44.445312 160.992188 40.390625 166.402344 40.390625 Z M 166.871094 42.648438 C 162.75 42.648438 159.550781 45.613281 159.550781 50.761719 C 159.550781 55.90625 162.722656 58.949219 166.871094 58.949219 C 170.90625 58.949219 174.1875 55.839844 174.1875 50.800781 C 174.1875 45.765625 170.933594 42.648438 166.871094 42.648438 Z M 166.871094 42.648438 "/>
<path style=" stroke:none;fill-rule:nonzero;fill:rgb(0%,0%,0%);fill-opacity:1;" d="M 182.472656 33.496094 L 185 33.496094 L 185 60.910156 L 182.472656 60.910156 Z M 182.472656 33.496094 "/>
<path style=" stroke:none;fill-rule:nonzero;fill:rgb(0%,0%,0%);fill-opacity:1;" d="M 70.832031 50.871094 L 72.339844 60.386719 L 64.027344 55.894531 L 55.707031 60.386719 L 57.21875 50.871094 L 50.414062 44.074219 L 59.867188 42.519531 L 64.027344 33.964844 L 68.148438 42.519531 L 77.601562 44.074219 Z M 70.832031 50.871094 "/>
</g>
</svg>

<svg xmlns="http://www.w3.org/2000/svg" width="187" height="71" viewBox="0 0 185 71"><path style="stroke:none;fill-rule:nonzero;fill:#000;fill-opacity:1" d="M10.297 28.18C4.324 28.18 0 24.05 0 17.43 0 10.813 4.23 6.676 10.297 6.676c5.945 0 10.133 4.047 10.133 10.418 0 .625-.035 1.25-.11 1.87H6.18c.21 2.755 1.851 4.005 3.855 4.005a3.306 3.306 0 0 0 3.25-2.02h6.621c-.953 4.086-4.562 7.23-9.61 7.23zM6.234 15.41h7.797c0-2.285-1.75-3.601-3.824-3.601-2.07 0-3.61 1.273-3.973 3.601zM31.96 28.18c-5.429 0-9.073-3.11-9.362-7.157h6.18c.144 1.465 1.421 2.434 3.136 2.434 1.602 0 2.438-.75 2.438-1.684 0-3.37-11.079-.937-11.079-8.613 0-3.558 2.95-6.484 8.27-6.484 5.32 0 8.172 3 8.566 7.12h-5.785c-.18-1.421-1.234-2.358-2.984-2.358-1.457 0-2.262.597-2.262 1.609 0 3.332 10.985.973 11.117 8.765.004 3.637-3.125 6.368-8.234 6.368zM45.012 12.297h-2.45V6.98h2.477V1.883h6.234V6.98h4.079v5.317h-4.106v8.39c0 1.239.508 1.762 1.895 1.762h2.222v5.426h-3.191c-4.227 0-7.18-1.828-7.18-7.266zM67.86 28.18c-5.973 0-10.297-4.13-10.297-10.75 0-6.617 4.222-10.754 10.296-10.754 6.075 0 10.133 4.047 10.133 10.418-.004.625-.035 1.25-.105 1.87H63.78c.219 2.755 1.86 4.005 3.864 4.005a3.301 3.301 0 0 0 3.242-2.02h6.629c-.98 4.086-4.582 7.23-9.657 7.23zm-4.016-12.77h7.797c0-2.285-1.75-3.601-3.825-3.601-2.07 0-3.636 1.273-3.972 3.601zM90.313 28.18c-5.977 0-10.297-4.13-10.297-10.75 0-6.617 4.23-10.754 10.296-10.754 5.938 0 10.133 4.047 10.133 10.418 0 .625-.035 1.25-.11 1.87H86.23c.22 2.755 1.86 4.005 3.864 4.005a3.298 3.298 0 0 0 3.27-2.02H100c-1.008 4.086-4.621 7.23-9.688 7.23zm-4.051-12.77h7.785c0-2.285-1.75-3.601-3.828-3.601-2.082 0-3.586 1.273-3.957 3.601zM131.75 16.531c0-2.754-1.531-4.234-3.898-4.234-2.372 0-3.903 1.5-3.903 4.234v11.344h-6.176V16.531c0-2.754-1.53-4.234-3.906-4.234-2.375 0-3.898 1.5-3.898 4.234v11.344h-6.235V6.98h6.235v2.622a7.112 7.112 0 0 1 5.945-2.848 7.539 7.539 0 0 1 6.926 3.894 8.123 8.123 0 0 1 6.863-3.894c5.027 0 8.238 3.293 8.238 8.945v12.176h-6.18zM151.355 28.18c-5.972 0-10.296-4.13-10.296-10.75 0-6.617 4.226-10.754 10.296-10.754 5.946 0 10.133 4.047 10.133 10.418 0 .625-.039 1.25-.11 1.87h-14.1c.214 2.755 1.855 4.005 3.859 4.005a3.298 3.298 0 0 0 3.246-2.02h6.633c-.985 4.086-4.594 7.23-9.66 7.23zm-4.042-12.77h7.832c0-2.285-1.75-3.601-3.825-3.601-2.074 0-3.644 1.273-4.007 3.601zM172.5 6.676a7.412 7.412 0 0 1 6.266 3.187V.16H185v27.715h-6.234v-2.992a6.979 6.979 0 0 1-6.266 3.297c-5 0-8.973-4.2-8.973-10.79 0-6.593 3.973-10.714 8.973-10.714zm1.816 5.582c-2.332 0-4.445 1.8-4.445 5.133 0 3.328 2.113 5.207 4.445 5.207 2.336 0 4.45-1.836 4.45-5.168 0-3.328-2.078-5.172-4.45-5.172zM88.445 40.39a8.519 8.519 0 0 1 7.75 4.669V33.496h2.528V60.91h-2.528v-4.52a8.188 8.188 0 0 1-7.785 4.817c-5.402 0-9.402-4.129-9.402-10.445 0-6.317 4-10.371 9.437-10.371zm.434 2.258c-4.117 0-7.317 2.965-7.317 8.114 0 5.144 3.176 8.187 7.317 8.187 4.035 0 7.316-3.11 7.316-8.148 0-5.035-3.28-8.153-7.316-8.153zM103.906 34.941c0-1.015.824-1.843 1.84-1.843a1.844 1.844 0 0 1 0 3.687 1.841 1.841 0 0 1-1.84-1.844zm.578 5.746h2.524V60.91h-2.524zM120.992 40.39c3.895 0 6.664 2.15 7.785 4.708v-4.41h2.528v20.746c0 5.664-3.79 9.406-9.192 9.406-5.09 0-8.617-2.672-9.414-6.883h2.492c.825 2.754 3.317 4.633 6.922 4.633 3.746 0 6.664-2.559 6.664-7.149V56.43a8.274 8.274 0 0 1-7.785 4.777c-5.41 0-9.406-4.129-9.406-10.445 0-6.317 3.996-10.371 9.406-10.371zm.469 2.258c-4.121 0-7.32 2.965-7.32 8.114 0 5.144 3.171 8.187 7.32 8.187 4.035 0 7.316-3.11 7.316-8.148 0-5.035-3.28-8.153-7.316-8.153zM136.484 34.941c0-1.015.825-1.843 1.84-1.843 1.02 0 1.84.828 1.84 1.843a1.839 1.839 0 1 1-3.68 0zm.578 5.746h2.528V60.91h-2.528zM146.043 42.871h-2.746v-2.184h2.746V35.61h2.555v5.078h5.406v2.184h-5.406v12.555c0 2.484.828 3.261 3.101 3.261h2.305v2.223H151.3c-3.434 0-5.258-1.445-5.258-5.504zM166.402 40.39c3.961 0 6.668 2.184 7.786 4.743v-4.446h2.519V60.91h-2.52v-4.48a8.288 8.288 0 0 1-7.824 4.777c-5.37 0-9.37-4.129-9.37-10.445 0-6.317 4-10.371 9.41-10.371zm.47 2.258c-4.122 0-7.321 2.965-7.321 8.114 0 5.144 3.172 8.187 7.32 8.187 4.035 0 7.316-3.11 7.316-8.148 0-5.035-3.253-8.153-7.316-8.153zM182.473 33.496H185V60.91h-2.527zM70.832 50.871l1.508 9.516-8.313-4.492-8.32 4.492 1.512-9.516-6.805-6.797 9.453-1.554 4.16-8.555 4.121 8.555 9.454 1.554zm0 0"/></svg>
